!! 00000] TT[WS
!!!OTL: Nan cao
!!!ARE: Asia, China, Shanxi Heshun
!! Ethnic Group: Han
!! WI, 120 (2)
!!!SCT: J0143
!!!YEM: Copyright 1995, estate of Helmut Schaffrath.
**kern
*ICvox
*Ivox
*M2/4
*k[b-e-a-]
*E-:
{4b-
8a-
8g
=1
2f
=2
8r
4cc
8ee-
=3
4b-
4c
=4
2B-}
=5
{4g
8r
[8cc
=6
8cc]
8b-
8g
8f
=7
2g
=8
2b-
=9
8g
8a-
8g
8f
=10
8g
8a-
8g
8f
=11
8e-
8c
[4e-
=12
4e-]}
{8g
8f
=13
4e-
[4f
=14
4f]
8f
8g
=15
4.b-
8ee-
=16
8cc
8b-
[4B-
=17
8.B-]
16c
[4e-
=18
8e-]
16d
16c
[4B-
=19
4B-]}
{[4e-
=20
2e-]
=21
8g
8a-
4e-
=22
8g
8f
4e-
=23
8e-
8c
[4e-
=24
4e-]
8f
8g}
=25
{8f
8g
[4B-
=26
8B-]
8c
[4e-
=27
8e-]
16d
16c
4B-}
=28
{4b-
4g
=29
8r
4cc
8b-
=30
8g
8f
[4g
=31
4g]
[4b-
=32
4b-]
8g
8a-
=33
8g
8f
8g
8a-
=34
8g
8f
8e-
8c
=35
2e-}
=36
{8g
8f
4e-
=37
2f
=38
8f
8g
4b-
=39
8r
8ee-
8cc
8b-
=40
4.b-
8c
=41
4.e-
16d
16c
=42
2B-
=43
2e-}
=44
{8g
8a-
8g
8f
=45
4.e-
8c
=46
2e-
=47
8f
8g
8f
8g
=48
4.B-
8c
=49
4.e-
16d
16c
=50
2B-}
==
!!!AGN: Xiaodiao. Qingge
!!!ONB: ESAC (Essen Associative Code) Database: CHINA
!!!AMT: simple duple
!!!AIN: vox
!!!EED: Helmut Schaffrath
!!!EEV: 1.0
*-
!!!ONB: Tied note syntax fixed by Craig Sapp, 2004/05/03/
